!!!COM: Johann Sebastian Bach
!!!OPR: Canonic Variations on 'Vom Himmel hoch, da komm ich her'
!!!OTL: Canon per augmentationem (Canon No. 5)
!!!SCT: BWV 769e
**kern	**kern	**kern	**kern
*CF	*conseq	*freeV	*guida
*k[]	*k[]	*k[]	*k[]
*C:	*C:	*C:	*C:
*M4/4	*M4/4	*M4/4	*M4/4
=1	=1	=1	=1
1r	4r	2r	8r
.	.	.	8c
.	4C	.	8e
.	.	.	[8a
.	4E	8r	8a]
.	.	8G	4g
.	[4A	8c	.
.	.	8e	16f#
.	.	.	16e
=2	=2	=2	=2
1r	4A]	8.dM	32f#
.	.	.	32g
.	.	.	32a
.	.	.	32b
.	.	.	4cc
.	.	16c	.
.	2G	[4d	.
.	.	.	16bm
.	.	.	16a
.	.	8d]	16b
.	.	.	16g
.	.	16c	4e
.	.	16B	.
.	8F#	[4A	.
.	8A	.	16d
.	.	.	16c
=3	=3	=3	=3
1r	16F#	8A]	8d
.	16G	.	.
.	16A	8r	8r
.	16B	.	.
.	2c	4r	16r
.	.	.	16d
.	.	.	16e
.	.	.	16f#
.	.	8r	16g
.	.	.	16d
.	.	16d	[8g
.	.	16e	.
.	8B	8d	16g]
.	.	.	32a
.	.	.	32g
.	8A	8c	16fn
.	.	.	16e
=4	=4	=4	=4
2r	8B	8g	16d
.	.	.	16c
.	8G	16B	16d
.	.	16A	16e
.	2E	8B	16d
.	.	.	16f
.	.	[8G	16e
.	.	.	16d
2c	.	8G]	16c
.	.	.	16e
.	.	16A	16f#
.	.	16B	16g
.	8D	8E	16a
.	.	.	16e
.	8C	16F#	[8a
.	.	16G	.
=5	=5	=5	=5
2B	4D	8F#	16a]
.	.	.	16d
.	.	16G	16e
.	.	16A	16f#
.	4r	8B	16g
.	.	.	16d
.	.	16A	[8g
.	.	16G	.
2A	8r	2c	16g]
.	.	.	32f#
.	.	.	32e
.	8D	.	16f#
.	.	.	16d
.	8E	.	16g
.	.	.	16d
.	8F#	.	[8a
=6	=6	=6	=6
2B	8G	8B	16a]
.	.	.	16g
.	8D	8r	16a
.	.	.	16f#
.	[4G	8r	16g
.	.	.	16d
.	.	16d	16fn
.	.	16c	16e
2G	8G]	8B	32f
.	.	.	32e
.	.	.	16d
.	16A	8d	[8b
.	16G	.	.
.	8Fn	8g	16b]
.	.	.	16g
.	8E	8r	16cc
.	.	.	16e
=7	=7	=7	=7
2A	8D	8r	16f
.	.	.	16g
.	8C	8E	16a
.	.	.	16g
.	8D	[4F	16f
.	.	.	16e
.	8E	.	16d
.	.	.	16c
2B	8D	8F]	16d
.	.	.	16c
.	8F	16G	16B
.	.	16A	16c
.	8E	8G	16d
.	.	.	16e
.	8D	8F	16f
.	.	.	16d
=8	=8	=8	=8
2c	8C	4G	16e
.	.	.	16f
.	8E	.	16g
.	.	.	16f
.	8F#	4r	16e
.	.	.	16d
.	8G	.	16c
.	.	.	16B
2r	8A	2r	16c
.	.	.	16B
.	8E	.	16A
.	.	.	16B
.	[4A	.	16c
.	.	.	16e
.	.	.	16d
.	.	.	16c
=9	=9	=9	=9
1r	8A]	8r	16B
.	.	.	16c
.	8D	8F#	[8d
.	8E	8G	16d]
.	.	.	16c
.	8F#	[8d	16B
.	.	.	16A
.	8G	8d]	32B
.	.	.	32A
.	.	.	32G
.	.	.	32A
.	8D	16F#	[8B
.	.	32G	.
.	.	32A	.
.	[4G	8G	16B]
.	.	.	16G
.	.	8e	16A
.	.	.	16B
=10	=10	=10	=10
1r	8G]	8.A	16c
.	.	.	16B
.	16F#	.	[8c
.	16E	16G	.
.	8F#	8A	16c]
.	.	.	16A
.	8D	8F#	16d
.	.	.	16c
.	8G	16G	16B
.	.	16A	16c
.	8D	8B	16d
.	.	.	16e
.	[4A	16r	16f#
.	.	16d	16g#
.	.	16c	16a
.	.	16B	16b
=11	=11	=11	=11
1r	8A]	8A	32cc
.	.	.	32dd
.	.	.	32cc
.	.	.	32b
.	8G	8e	[8cc
.	8A	8f#	16cc]
.	.	.	32b
.	.	.	32a
.	8F#	8A	16dd
.	.	.	16cc
.	8G	2G	32b
.	.	.	32cc
.	.	.	32b
.	.	.	32a
.	8D	.	16b
.	.	.	[16b
.	8Fn	.	32b]
.	.	.	32cc#
.	.	.	8dd
.	8E	.	.
.	.	.	16cc#
=12	=12	=12	=12
1r	16F	8A	[4dd
.	16E	.	.
.	8D	16d	.
.	.	16e	.
.	[4B	16f#	16dd]
.	.	16d	16cc
.	.	8g	16b
.	.	.	16a
.	8B]	8d	16g
.	.	.	32fn
.	.	.	32e
.	8G	16c	[8f
.	.	16B	.
.	8c	8c	16f]
.	.	.	16e
.	8E	8G	16d
.	.	.	16c
=13	=13	=13	=13
1r	8F	8A	16d
.	.	.	16f
.	8G	8B	16e
.	.	.	16d
.	8A	8.c	16c
.	.	.	16d
.	8G	.	[8e
.	.	16B-	.
.	8F	8A	16e]
.	.	.	16A
.	8E	8G	16Bn
.	.	.	16c
.	8D	8F	16d
.	.	.	16e
.	8C	8A	16f
.	.	.	16A
=14	=14	=14	=14
1r	8D	8F	16B
.	.	.	8g
.	8C	8D	.
.	.	.	[16f
.	8BB	[4G	16f]
.	.	.	32g
.	.	.	32f
.	8C	.	32e
.	.	.	32d
.	.	.	32c
.	.	.	32B
.	8D	16G]	16A
.	.	16F	8d
.	8E	8G	.
.	.	.	[16c
.	8F	[4A	16c]
.	.	.	32f
.	.	.	32g
.	8D	.	32f
.	.	.	32e
.	.	.	32d
.	.	.	32c
=15	=15	=15	=15
2r	8E	16A]	16B
.	.	16G	8c
.	8F	8A	.
.	.	.	[16d
.	8G	8B	16d]
.	.	.	16B
.	8F	8d	16G
.	.	.	16B
2c	8E	8G	16C
.	.	.	16G
.	8D	8F	16A
.	.	.	16B
.	8C	8E	16c
.	.	.	16d
.	8BB	[8G	16e
.	.	.	16f
=16	=16	=16	=16
2c	8C	8G]	16e
.	.	.	16d
.	8BB	8E	16c
.	.	.	16d
.	8AA	8A	16e
.	.	.	16f
.	8BB	16G	16g
.	.	16F	16a
2G	8C	8E	16g
.	.	.	16f
.	8E	8c	16e
.	.	.	16f#
.	8D	8B	16g
.	.	.	16a
.	8C	8A	16b
.	.	.	16cc
=17	=17	=17	=17
(4.G	8BB	8G	16dd
.	.	.	32cc
.	.	.	32b
.	8C	8r	[8a
.	[4D	4r	16a]
.	.	.	32b
.	.	.	32cc
8F)	.	.	16b
.	.	.	32cc
.	.	.	32dd
(4.E	8D]	8r	16g#
.	.	.	32a
.	.	.	32b
.	8C	8E	8a
.	8BB	8D	16r
.	.	.	16gn
8F)	8AA	8C	16f
.	.	.	16e
=18	=18	=18	=18
2G	16BB	4D	16d
.	16AA	.	16c
.	16GG	.	16B
.	16AA	.	16c
.	[4BB	8r	16d
.	.	.	16e
.	.	8G	16f
.	.	.	16g
2F	8BB]	4D	16a
.	.	.	16g
.	8GG	.	16a
.	.	.	16b
.	8AA	8r	16cc
.	.	.	32b
.	.	.	32a
.	8BB	[8G	16dd
.	.	.	16dd
=19	=19	=19	=19
2E	8C	8.G]	32g
.	.	.	32a
.	.	.	32g
.	.	.	32f#
.	8BB	.	[8g
.	.	16Fn	.
.	[4C	16E	16g]
.	.	16E	16fn
.	.	[8G	16e
.	.	.	16d
2r	8C]	8G]	32e
.	.	.	32d
.	.	.	32c
.	.	.	32B
.	8AA	16F#	[8c
.	.	16E	.
.	8D	4F#	16c]
.	.	.	16A
.	8C	.	16B
.	.	.	16c
=20	=20	=20	=20
1r	8BB	16r	16d
.	.	16D	16G
.	8C	16E	[8g
.	.	16G	.
.	8D	16B	16g]
.	.	16A	16f#
.	8E	16r	16a
.	.	16d	16g#
.	8F#	8c	16a
.	.	.	16A
.	8G#	32B	[8e
.	.	32c	.
.	.	16d	.
.	8A	8c	32e]
.	.	.	32cc
.	.	.	32b
.	.	.	32a
.	8B	8d	16gn
.	.	.	16fn
=21	=21	=21	=21
1r	16c	8c	(8f
.	16d	.	.
.	16c	8r	[8e
.	16B	.	.
.	[4c	8r	32e]
.	.	.	32a
.	.	.	32g
.	.	.	32f
.	.	16g	16e
.	.	16f	16d
.	8c]	4e	16c
.	.	.	16e
.	16B	.	16g
.	16A	.	16cc
.	8d	8f#	32b
.	.	.	32a
.	.	.	16g
.	8c	8r	32a
.	.	.	32g
.	.	.	16f#
=22	=22	=22	=22
1r	16B	16r	[4g
.	16c	16e	.
.	16B	16d	.
.	16A	16c	.
.	8B	8d	32g]
.	.	.	32d
.	.	.	32e
.	.	.	32f#
.	[8B	8r	32g
.	.	.	32a
.	.	.	32b
.	.	.	32cc
.	16B]	8r	32dd
.	.	.	32cc#
.	16c#	.	32dd
.	.	.	32ee
.	4d	16r	32ffn
.	.	.	32ee
.	.	16fn	32dd
.	.	.	32ff
.	.	16g	16ee
.	.	16b-	8g
.	8c#	[8a	.
.	.	.	32fn
.	.	.	32e
=23	=23	=23	=23
1r	[2d	16a]	16f
.	.	16g	16b-
.	.	16f	16a
.	.	16e	16g
.	.	16d	16f
.	.	16e	16e
.	.	[8f	16d
.	.	.	16c
.	8d]	8f]	16Bn
.	.	.	16d
.	8c	8a	16f
.	.	.	[16a
.	8Bn	8d	16a]
.	.	.	8g
.	8A	8c	.
.	.	.	[16f
=24	=24	=24	=24
1r	8G	8d	32f]
.	.	.	32dd
.	.	.	32cc
.	.	.	32b
.	16F	8G	16cc
.	16E	.	16g
.	[4F	8r	16a
.	.	.	16dd
.	.	8A	16ee
.	.	.	16ff
.	8F]	8G	16bm
.	.	.	16a
.	8E	8c	8g
.	8D	8F	16r
.	.	.	32cc
.	.	.	32b
.	8C	[8A	16cc
.	.	.	16a
=25	=25	=25	=25
2r	8D	8A]	(32g
.	.	.	32f
.	.	.	16e
.	8F	8B	16d
.	.	.	[16a
.	8E	8c	16a]
.	.	.	8g
.	8D	8B	.
.	.	.	16f
2E	8C	16r	32g
.	.	.	32f
.	.	8G	16e
.	8D	.	64g
.	.	.	64f
.	.	.	32e
.	.	16F	16d
.	[4E	4G	16c
.	.	.	32d
.	.	.	32e
.	.	.	32f
.	.	.	32g
.	.	.	32a
.	.	.	32b
=26	=26	=26	=26
2A	8E]	8F	32cc
.	.	.	32b
.	.	.	16a
.	8AA	8C	[8ff
.	8BB	8D	16ff]
.	.	.	16ee
.	8C	8E	16dd
.	.	.	16cc
2A	8D	8F	32b
.	.	.	32dd
.	.	.	[16cc
.	8E	8r	32cc]
.	.	.	32ee
.	.	.	[16dd
.	8F	8r	32dd]
.	.	.	32ff
.	.	.	8ee
.	8AA	8C	.
.	.	.	16ff
=27	=27	=27	=27
4G	8BB	8D	16f
.	.	.	16e
.	4G	8B	16em
.	.	.	16d
4A	.	4A	16c
.	.	.	8ee
.	[8F	.	.
.	.	.	32dd
.	.	.	32cc
2B	8F]	[2G	32dd
.	.	.	32cc
.	.	.	32b
.	.	.	32a
.	16G	.	[8g
.	16F	.	.
.	16E	.	16g]
.	16D	.	16ff
.	16C	.	16ee
.	16BB	.	16dd
=28	=28	=28	=28
4c	8AA	16G]	16ee
.	.	16C	32ff#
.	.	.	32gg
.	4D	8D	16ff#
.	.	.	32gg
.	.	.	32aa
4B	.	[4E	[8gg
.	[8C	.	32gg]
.	.	.	32ffn
.	.	.	32ee
.	.	.	32dd
2A	8C]	8E]	16ee
.	.	.	16a
.	16Fn	[8A	16dd
.	16G	.	16cc#
.	16F	16A]	16dd
.	16E	16G	16ee
.	16D	16F	[8ff
.	16C	16E	.
=29	=29	=29	=29
2G	8BB	8D	32ff]
.	.	.	32ee
.	.	.	32dd
.	.	.	32ff
.	4C	8G	32ee
.	.	.	32dd
.	.	.	32cc
.	.	.	32b
.	.	8E	32a
.	.	.	32cc
.	.	.	32b
.	.	.	32a
.	[8D	16A	32g
.	.	.	32f
.	.	16c	32e
.	.	.	32f
2r	8D]	8B	(4.fT
.	8BB	8D	.
.	8GG	8G	.
.	8BB	8r	16e
.	.	.	16f)
=30	=30	=30	=30
1r	8CC	8r	[4e
.	8GG	8BB	.
.	8AA	8C	32e]
.	.	.	32c
.	.	.	32B
.	.	.	32A
.	8BB	8D	32G
.	.	.	32F
.	.	.	32E
.	.	.	32D
.	8C	16E	4C
.	.	16A	.
.	8D	16G	.
.	.	16F	.
.	8E	8G	16r
.	.	.	16cc
.	8F	8d	16b
.	.	.	16a
=31	=31	=31	=31
1r	8E	8G	16b
.	.	.	16g
.	8D	[8F	16a
.	.	.	16b
.	8C	16F]	8cc
.	.	16E	.
.	8D	8r	32r
.	.	.	32ff
.	.	.	32gg
.	.	.	32aa
.	8E	4r	32gg
.	.	.	32bb-
.	.	.	32aa
.	.	.	32gg
.	8F	.	32aa
.	.	.	32dd
.	.	.	32cc
.	.	.	32bn
.	8G	16r	32cc
.	.	.	32b
.	.	16e	32a
.	.	.	32g
.	8A	16d	32f#
.	.	.	32a
.	.	16c	32b
.	.	.	32cc
=32	=32	=32	=32
1r	8G	16d	32b
.	.	.	32a
.	.	16B	[8.g
.	8F	16c	.
.	.	16d	.
.	8E	8e	32g]
.	.	.	32g
.	.	.	8cc
.	8F#	[8d	.
.	.	.	[16cc
.	8G	8d]	32cc]
.	.	.	32b
.	.	.	8ee
.	8A	8c	.
.	.	.	[16ee
.	8B	8fn	32ee]
.	.	.	32dd
.	.	.	8gg
.	8c	8e	.
.	.	.	[16gg
=33	=33	=33	=33
1r	8d	4.a	32gg]
.	.	.	32ff
.	.	.	32ee
.	.	.	32dd
.	16c	.	16ee
.	16B	.	16gg#
.	[4A	.	32aa
.	.	.	32ee
.	.	.	32dd
.	.	.	32cc
.	.	32g#	16dd
.	.	32fn	.
.	.	32e	16bb
.	.	32d	.
.	8A]	4e	16ccc
.	.	.	16a
.	16B	.	32aM
.	.	.	32g#
.	16c	.	16a
.	8B	16r	[4dd
.	.	16g#	.
.	16c	16a	.
.	16d	16b	.
=34	=34	=34	=34
1r	8G#	[4e	16dd]
.	.	.	32cc
.	.	.	32b
.	16A	.	32a
.	.	.	32g#
.	16B	.	32f#
.	.	.	32e
.	4A	16e]	[4cc
.	.	16c	.
.	.	16d	.
.	.	16e	.
.	8r	4A	16cc]
.	.	.	16c
.	8Gn	.	16e
.	.	.	[16a
.	8Fn	8r	16a]
.	.	.	8gn
.	8E	8c#	.
.	.	.	32fn
.	.	.	32e
=35	=35	=35	=35
1r	8D	8d	16f
.	.	.	32d
.	.	.	32f
.	8C	4F	16a
.	.	.	[16dd
.	8BB	.	16dd]
.	.	.	8cc
.	8C	8E	.
.	.	.	32b
.	.	.	32a
.	8D	8F	32b
.	.	.	32g
.	.	.	32a
.	.	.	32b
.	8E	8G	32cc
.	.	.	32dd
.	.	.	[16ee
.	8F	8A	16ee]
.	.	.	8dd
.	8G	[8e	.
.	.	.	32cc
.	.	.	32b
=36	=36	=36	=36
2r	8A	8e]	32cc
.	.	.	32b
.	.	.	32cc
.	.	.	32dd
.	8G	8B	32ee
.	.	.	32ff
.	.	.	[16gg
.	8A	8c	16gg]
.	.	.	8ff
.	8B	[8g	.
.	.	.	32ee
.	.	.	32dd
2c	8c	16g]	32ee
.	.	.	32ff
.	.	16e	32ee
.	.	.	32dd
.	16B	[8a	16ee
.	16A	.	16ff#
.	8d	16a]	8.ff#m
.	.	16g	.
.	8d	8a	.
.	.	.	16gg
=37	=37	=37	=37
2B	16G	8g	[4gg
.	16A	.	.
.	16G	8d	.
.	16F#	.	.
.	[4G	8B	32gg]
.	.	.	32ffn
.	.	.	32ee
.	.	.	32dd
.	.	[8e	32ee
.	.	.	32gg
.	.	.	32ee
.	.	.	32b
2A	8G]	8e]	32cc
.	.	.	32a
.	.	.	32b
.	.	.	32cc
.	8Fn	8d	32dd
.	.	.	32a
.	.	.	32dd
.	.	.	32ee
.	8E	8c	(8ee
.	8D	16B	[8ff
.	.	16c	.
=38	=38	=38	=38
2G	16E	8B	8ff_
.	16D	.	.
.	16C	8D	32ff]
.	.	.	32gg
.	16BB	.	32ff
.	.	.	32dd
.	[4C	8C	32ee
.	.	.	32ff
.	.	.	32ee
.	.	.	32cc
.	.	8F	32dd
.	.	.	32ee
.	.	.	32dd
.	.	.	32b
(4.A	8C]	8E	32cc
.	.	.	32g
.	.	.	32cc
.	.	.	32dd
.	8AA	8C	[8ee
.	8BB	8D	16ee]
.	.	.	16dd
8G)	8C	8E	(16ddM
.	.	.	16cc)
=39	=39	=39	=39
(4.F	8D	8F	(16ccM
.	.	.	16b)
.	8GG	8D	(16bm
.	.	.	16a)
.	[4G	8r	(16b
.	.	.	16cc#)
8E)	.	[8B-	(16cc#
.	.	.	[16dd
2D	8G]	8B-]	32dd]
.	.	.	32ee
.	.	.	32dd
.	.	.	32cc#
.	8F#	8A	16dd
.	.	.	16ee
.	8A	8cn	32ffn
.	.	.	32ee
.	.	.	16dd
.	8G#	8Bn	[8ee
=40	=40	=40	=40
[1C	8A	8c	32ee]
.	.	.	32ff
.	.	.	32ee
.	.	.	32dd
.	8AA	8r	32ee
.	.	.	32cc
.	.	.	32ee
.	.	.	32ff
.	[4E	8r	32gg
.	.	.	32aa
.	.	.	32gg
.	.	.	32ff
.	.	32r	[8gg
.	.	32G	.
.	.	32A	.
.	.	32B	.
.	16E]	16c	32gg]
.	.	.	32aa
.	16c	16e	32gg
.	.	.	32ff
.	16B	16d	[8gg
.	16A	16f	.
.	8G	16e	32gg]
.	.	.	32aa
.	.	16c	32gg
.	.	.	32ff
.	8F	16d	[8gg
.	.	16B	.
=41	=41	=41	=41
1C_	[2E	16c	32gg]
.	.	.	32aa
.	.	16A	32gg
.	.	.	32ff
.	.	[8B-	32gg
.	.	.	32ff
.	.	.	32ee
.	.	.	32dd
.	.	16B-]	32ee
.	.	.	32ff
.	.	16G	32ee
.	.	.	32dd
.	.	8A-	32ee
.	.	.	32dd
.	.	.	32cc
.	.	.	32bn
.	16E]	16G	[4cc
.	16An	16c	.
.	16G	16Bn	.
.	16F	16An	.
.	8E	8G	16cc]
.	.	.	32dd
.	.	.	32ee
.	8D	8F	32ff
.	.	.	32gg
.	.	.	32aan
.	.	.	32bbn
=42	=42	=42	=42
1C];	1C; 1E;	1G;	1ccc;
==	==	==	==
*-	*-	*-	*-
!!!CDT: 1685/3//-1750/7/28
!!!OCY: Deutschland
!!!ODT: ?1736
!!!AFR: chorale variations
!!!AST: polyphony
!!!AMT: simple quadruple
!!!SCA: Bach-Werke-Verzeichnis
!!!AIN: organ
!!!YEP: David Huron and Denis Collins
!!!YEN: Canada
!!!EEV: 1.0
!!!RDT: 1995 April 29
!!!YED: 1995 August 31
